; G-Code generated by Simplify3D(TM) Version 2.1.0
; Jan 11, 2016 at 1:25:50 PM
; Settings Summary
;   processName,ANY-025-25infill
;   applyToModels,standoff-13mm,standoff-13mm(2),standoff-13mm(3),standoff-13mm(4)
;   printMaterial,
;   printQuality,
;   extruderName,Right Extruder,Left Extruder
;   extruderToolheadNumber,0,1
;   extruderDiameter,0.4,0.4
;   extruderAutoWidth,1,1
;   extruderWidth,0.48,0.48
;   extrusionMultiplier,1,1
;   extruderUseRetract,1,1
;   extruderRetractionDistance,1,1
;   extruderExtraRestartDistance,0,0
;   extruderRetractionZLift,0,0
;   extruderRetractionSpeed,1200,1200
;   extruderUseCoasting,0,0
;   extruderCoastingDistance,0.2,0.2
;   extruderUseWipe,0,0
;   extruderWipeDistance,5,5
;   primaryExtruder,0
;   layerHeight,0.2
;   topSolidLayers,3
;   bottomSolidLayers,3
;   perimeterOutlines,2
;   printPerimetersInsideOut,1
;   startPointOption,2
;   startPointOriginX,0
;   startPointOriginY,0
;   startPointOriginZ,300
;   sequentialIslands,0
;   spiralVaseMode,0
;   firstLayerHeightRatio,0.75
;   firstLayerUnderspeed,0.75
;   useRaft,0
;   raftLayers,2
;   raftOffset,2
;   raftInfill,10
;   disableRaftBaseLayers,0
;   useSkirt,1
;   skirtLayers,2
;   skirtOutlines,6
;   skirtOffset,0.8
;   infillExtruder,0
;   externalInfillPattern,Rectilinear
;   infillPercentage,60
;   outlineOverlapPercentage,12
;   minInfillLength,5
;   infillLayerInterval,1
;   randomInfillStartPoint,1
;   infillAngles,45,135
;   generateSupport,0
;   supportExtruder,0
;   supportInfill,15
;   supportExtraInflation,0
;   supportLayerInterval,1
;   supportHorizontalPartOffset,0.65
;   supportUpperSeparationLayers,1
;   supportLowerSeparationLayers,1
;   supportGridSpacing,2
;   maxOverhangAngle,45
;   supportAngles,0
;   temperatureName,Right Extruder,Left Extruder,Heated Build Platform
;   temperatureNumber,0,1,0
;   temperatureSetpointCount,1,1,1
;   temperatureSetpointLayers,1,1,1
;   temperatureSetpointTemperatures,240,0,60
;   temperatureStabilizeAtStartup,0,0,0
;   temperatureHeatedBed,0,0,1
;   temperatureRelayBetweenLayers,0,0,0
;   temperatureRelayBetweenLoops,0,0,0
;   fanLayers,1,2
;   fanSpeeds,0,100
;   blipFanToFullPower,0
;   adjustSpeedForCooling,1
;   minSpeedLayerTime,15
;   minCoolingSpeedSlowdown,20
;   increaseFanForCooling,0
;   minFanLayerTime,45
;   maxCoolingFanSpeed,100
;   increaseFanForBridging,1
;   bridgingFanSpeed,100
;   use5D,1
;   relativeEdistances,1
;   allowEaxisZeroing,0
;   includeM10123,0
;   stickySupport,1
;   detectArcs,0
;   arcReplaceG2G3,0
;   arcRadialCompensation,1
;   gcodeXoffset,0
;   gcodeYoffset,0
;   gcodeZoffset,0
;   overrideMachineDefinition,1
;   machineTypeOverride,0
;   strokeXoverride,220
;   strokeYoverride,140
;   strokeZoverride,150
;   originOffsetXoverride,110
;   originOffsetYoverride,70
;   originOffsetZoverride,0
;   homeXdirOverride,1
;   homeYdirOverride,1
;   homeZdirOverride,-1
;   flipXoverride,1
;   flipYoverride,-1
;   flipZoverride,1
;   startingGcode,; **** Replicator 1 dual start.gcode ****,M73 P0 ; enable build progress,G162 X Y F3000 ; home XY maximum,G161 Z F1200 ; home Z minimum,G92 Z-5 ; set Z to -5,G1 Z0 ; move Z to 0,G161 Z F100 ; home Z slowly,M132 X Y Z A B ; recall home offsets,M135 T0 ; load right extruder offsets,G1 X105 Y-70 Z30 F9000 ; move to wait position off table,G130 X20 Y20 Z20 A20 B20 ; lower stepper Vrefs while heating,M126 S[fan_speed_pwm],M140 S[bed0_temperature] T0,M104 S[extruder0_temperature] T0,M104 S[extruder1_temperature] T1,M134 T0 ; stabilize bed temperature,M133 T0 ; stabilize right extruder temperature,G130 X127 Y127 Z40 A127 B127 ; default stepper Vrefs,G92 A0 B0 ; zero extruders,G1 Z0.4 ; position nozzle,G1 E25 F300 ; purge nozzle,G1 X100 Y-65 Z0.15 F1200 ; slow wipe,G1 X95 Y-60 Z0.5 F1200 ; lift,G92 A0 B0 ; zero extruders,M73 P1 ;@body (notify GPX body has started),; **** end of start.gcode ****
;   layerChangeGcode,
;   toolChangeGcode,
;   endingGcode,; **** Replicator 1 dual end.gcode ****,M73 P100 ; end build progress,G0 Z150 F1000 ; send Z axis to bottom of machine,M140 S0 T0 ; cool down HBP,M104 S0 T0 ; cool down right extruder,M104 S0 T1 ; cool down left extruder,M127 ; stop blower fan,G162 X Y F3000 ; home XY maximum,M18 ; disable stepper,M72 P1 ; play Ta-Da song,; **** end of end.gcode ****
;   createX3G,0
;   celebration,0
;   celebrationSong,Random Song
;   postProcessing,
;   defaultSpeed,3200
;   outlineUnderspeed,0.5
;   supportUnderspeed,0.8
;   rapidXYspeed,4200
;   rapidZspeed,1200
;   minBridgingArea,50
;   bridgingExtrusionMultiplier,1
;   bridgingSpeedMultiplier,0.8
;   filamentDiameter,1.6
;   useMinPrintHeight,0
;   minPrintHeight,9.85
;   useMaxPrintHeight,0
;   maxPrintHeight,10
;   overlapRemoval,0
;   overlapRemovalPercentage,0.3
;   useDiaphragm,0
;   diaphragmLayerInterval,20
;   robustSlicing,1
;   mergeAllIntoSolid,0
;   onlyRetractWhenCrossingOutline,1
;   retractBetweenLayers,1
;   useRetractionMinTravel,0
;   retractionMinTravel,3
;   useRetractionOozeRate,0
;   retractionOozeRate,100
;   onlyWipeOutlines,1
G90 ; use absolute coordinates
M83 ; relative extrusion distances
G21 ; set units to millimeters
; **** Replicator 1 dual start.gcode ****
M73 P0 ; enable build progress
G162 X Y F3000 ; home XY maximum
G161 Z F1200 ; home Z minimum
G92 Z-5 ; set Z to -5
G1 Z0 ; move Z to 0
G161 Z F100 ; home Z slowly
M132 X Y Z A B ; recall home offsets
M135 T0 ; load right extruder offsets
G1 X105 Y-70 Z30 F9000 ; move to wait position off table
G130 X20 Y20 Z20 A20 B20 ; lower stepper Vrefs while heating
M127
M140 S60 T0
M104 S240 T0
M104 S0 T1
M134 T0 ; stabilize bed temperature
M133 T0 ; stabilize right extruder temperature
G130 X127 Y127 Z40 A127 B127 ; default stepper Vrefs
G92 A0 B0 ; zero extruders
G1 Z0.4 ; position nozzle
G1 E25 F300 ; purge nozzle
G1 X100 Y-65 Z0.15 F1200 ; slow wipe
G1 X95 Y-60 Z0.5 F1200 ; lift
G92 A0 B0 ; zero extruders
M73 P1 ;@body (notify GPX body has started)
; **** end of start.gcode ****
G1 E-1 F1200
; layer 1, Z = 0.15
M135 T0
; tool H0.2 W0.48
G0 X-0.025 Y2.564 F4200
G0 Z0.15 F1200
G1 E1 F360
G1 X4.442 Y0.008 E0.2457 F2400
G1 X0.025 Y-2.564 E0.244
G1 X-4.442 Y-0.008 E0.2457
G1 X-0.025 Y2.564 E0.244
G0 X0.025 Y10.638 F4200
G1 X-6.154 Y14.175 E0.3399 F2400
G1 X-12.699 Y10.363 E0.3616
G1 X-12.67 Y2.79 E0.3616
G1 X-7.81 Y0.008 E0.2674
G1 X-12.699 Y-2.839 E0.2701
G1 X-12.67 Y-10.413 E0.3616
G1 X-6.097 Y-14.175 E0.3616
G1 X-0.025 Y-10.638 E0.3355
G1 X6.154 Y-14.175 E0.3399
G1 X12.699 Y-10.363 E0.3616
G1 X12.67 Y-2.79 E0.3616
G1 X7.81 Y-0.008 E0.2674
G1 X12.699 Y2.839 E0.2701
G1 X12.67 Y10.413 E0.3616
G1 X6.097 Y14.175 E0.3616
G1 X0.025 Y10.638 E0.3355
G0 X-0.06 Y10.134 F4200
G1 X-6.152 Y13.62 E0.3351 F2400
G1 X-12.218 Y10.088 E0.3351
G1 X-12.191 Y3.069 E0.3351
G1 X-6.85 Y0.012 E0.2939
G1 X-12.218 Y-3.115 E0.2966
G1 X-12.191 Y-10.134 E0.3351
G1 X-6.099 Y-13.62 E0.3351
G1 X-0.034 Y-10.088 E0.3351
G1 X-0.06 Y-3.069 E0.3351
G1 X-5.402 Y-0.012 E0.2939
G1 X-0.034 Y3.115 E0.2966
G1 X-0.06 Y10.134 E0.3351
G0 X0.034 Y10.088 F4200
G1 X0.06 Y3.069 E0.3351 F2400
G1 X5.402 Y0.012 E0.2939
G1 X0.034 Y-3.115 E0.2966
G1 X0.06 Y-10.134 E0.3351
G1 X6.152 Y-13.62 E0.3351
G1 X12.218 Y-10.088 E0.3351
G1 X12.191 Y-3.069 E0.3351
G1 X6.85 Y-0.012 E0.2939
G1 X12.218 Y3.115 E0.2966
G1 X12.191 Y10.134 E0.3351
G1 X6.099 Y13.62 E0.3351
G1 X0.034 Y10.088 E0.3351
G0 X0.515 Y9.813 F4200
G1 X0.539 Y3.348 E0.3087 F2400
G1 X6.15 Y0.136 E0.3087
G1 X11.736 Y3.39 E0.3087
G1 X11.712 Y9.855 E0.3087
G1 X6.101 Y13.066 E0.3087
G1 X0.515 Y9.813 E0.3087
G0 X-0.539 Y9.855 F4200
G1 X-6.15 Y13.066 E0.3087 F2400
G1 X-11.736 Y9.813 E0.3087
G1 X-11.712 Y3.348 E0.3087
G1 X-6.101 Y0.136 E0.3087
G1 X-0.515 Y3.39 E0.3087
G1 X-0.539 Y9.855 E0.3087
G1 E-1 F1200
G0 X-6.15 Y-0.136 F4200
G1 E1 F1200
G1 X-11.736 Y-3.39 E0.3087 F2400
G1 X-11.712 Y-9.855 E0.3087
G1 X-6.101 Y-13.066 E0.3087
G1 X-0.515 Y-9.813 E0.3087
G1 X-0.539 Y-3.348 E0.3087
G1 X-6.15 Y-0.136 E0.3087
G0 X0.515 Y-3.39 F4200
G1 X0.539 Y-9.855 E0.3087 F2400
G1 X6.15 Y-13.066 E0.3087
G1 X11.736 Y-9.813 E0.3087
G1 X11.712 Y-3.348 E0.3087
G1 X6.101 Y-0.136 E0.3087
G1 X0.515 Y-3.39 E0.3087
G0 X0.996 Y-3.665 F4200
G1 X1.018 Y-9.576 E0.2822 F2400
G1 X6.148 Y-12.512 E0.2822
G1 X11.255 Y-9.537 E0.2822
G1 X11.233 Y-3.627 E0.2822
G1 X6.103 Y-0.691 E0.2822
G1 X0.996 Y-3.665 E0.2822
G0 X-1.018 Y-3.627 F4200
G1 X-6.148 Y-0.691 E0.2822 F2400
G1 X-11.255 Y-3.665 E0.2822
G1 X-11.233 Y-9.576 E0.2822
G1 X-6.103 Y-12.512 E0.2822
G1 X-0.996 Y-9.537 E0.2822
G1 X-1.018 Y-3.627 E0.2822
G0 X-6.103 Y0.691 F4200
G1 X-0.996 Y3.665 E0.2822 F2400
G1 X-1.018 Y9.576 E0.2822
G1 X-6.148 Y12.512 E0.2822
G1 X-11.255 Y9.537 E0.2822
G1 X-11.233 Y3.627 E0.2822
G1 X-6.103 Y0.691 E0.2822
G0 X1.018 Y3.627 F4200
G1 X6.148 Y0.691 E0.2822 F2400
G1 X11.255 Y3.665 E0.2822
G1 X11.233 Y9.576 E0.2822
G1 X6.103 Y12.512 E0.2822
G1 X0.996 Y9.537 E0.2822
G1 X1.018 Y3.627 E0.2822
G0 X1.497 Y3.906 F4200
G1 X6.146 Y1.245 E0.2558 F2400
G1 X10.774 Y3.941 E0.2557
G1 X10.754 Y9.297 E0.2558
G1 X6.105 Y11.958 E0.2558
G1 X1.477 Y9.262 E0.2558
G1 X1.497 Y3.906 E0.2557
G0 X-1.477 Y3.941 F4200
G1 X-1.497 Y9.297 E0.2558 F2400
G1 X-6.146 Y11.958 E0.2558
G1 X-10.774 Y9.262 E0.2558
G1 X-10.754 Y3.906 E0.2557
G1 X-6.105 Y1.245 E0.2558
G1 X-1.477 Y3.941 E0.2557
G0 X-6.146 Y-1.245 F4200
G1 X-10.774 Y-3.941 E0.2557 F2400
G1 X-10.754 Y-9.297 E0.2558
G1 X-6.105 Y-11.958 E0.2558
G1 X-1.477 Y-9.262 E0.2558
G1 X-1.497 Y-3.906 E0.2557
G1 X-6.146 Y-1.245 E0.2558
G0 X1.477 Y-3.941 F4200
G1 X1.497 Y-9.297 E0.2558 F2400
G1 X6.146 Y-11.958 E0.2558
G1 X10.774 Y-9.262 E0.2558
G1 X10.754 Y-3.906 E0.2557
G1 X6.105 Y-1.245 E0.2558
G1 X1.477 Y-3.941 E0.2557
G0 X1.958 Y-4.216 F4200
G1 X1.976 Y-9.018 E0.2293 F2400
G1 X6.144 Y-11.403 E0.2293
G1 X10.293 Y-8.987 E0.2293
G1 X10.275 Y-4.185 E0.2293
G1 X6.107 Y-1.799 E0.2293
G1 X1.958 Y-4.216 E0.2293
G0 X-1.976 Y-4.185 F4200
G1 X-6.144 Y-1.799 E0.2293 F2400
G1 X-10.293 Y-4.216 E0.2293
G1 X-10.275 Y-9.018 E0.2293
G1 X-6.107 Y-11.403 E0.2293
G1 X-1.958 Y-8.987 E0.2293
G1 X-1.976 Y-4.185 E0.2293
G0 X-6.107 Y1.799 F4200
G1 X-1.958 Y4.216 E0.2293 F2400
G1 X-1.976 Y9.018 E0.2293
G1 X-6.144 Y11.403 E0.2293
G1 X-10.293 Y8.987 E0.2293
G1 X-10.275 Y4.185 E0.2293
G1 X-6.107 Y1.799 E0.2293
G0 X1.976 Y4.185 F4200
G1 X6.144 Y1.799 E0.2293 F2400
G1 X10.293 Y4.216 E0.2293
G1 X10.275 Y9.018 E0.2293
G1 X6.107 Y11.403 E0.2293
G1 X1.958 Y8.987 E0.2293
G1 X1.976 Y4.185 E0.2293
G1 E-1 F1200
G0 X3.732 Y5.207 F4200
G1 E1 F1200
G1 X6.136 Y3.831 E0.1323 F1800
G1 X8.53 Y5.225 E0.1323
G1 X8.519 Y7.995 E0.1323
G1 X6.115 Y9.371 E0.1323
G1 X3.722 Y7.977 E0.1323
G1 X3.732 Y5.207 E0.1323
G0 X4.974 Y5.502 F4200
G1 X4.533 Y6.607 E0.0568 F1800
G1 X5.017 Y7.735 E0.0586
G1 X6.122 Y8.177 E0.0568
G1 X7.25 Y7.693 E0.0586
G1 X7.691 Y6.588 E0.0568
G1 X7.207 Y5.46 E0.0586
G1 X6.102 Y5.018 E0.0568
G1 X4.974 Y5.502 E0.0586
G0 X3.253 Y4.928 F4200
G1 X6.138 Y3.277 E0.1587 F1200
G1 X9.011 Y4.95 E0.1587
G1 X8.998 Y8.274 E0.1587
G1 X6.113 Y9.925 E0.1587
G1 X3.241 Y8.252 E0.1587
G1 X3.253 Y4.928 E0.1587
G0 X5.346 Y5.865 F4200
G1 X5.052 Y6.601 E0.0378 F1200
G1 X5.379 Y7.363 E0.0396
G1 X6.115 Y7.657 E0.0378
G1 X6.878 Y7.33 E0.0396
G1 X7.172 Y6.594 E0.0378
G1 X6.845 Y5.832 E0.0396
G1 X6.109 Y5.538 E0.0378
G1 X5.346 Y5.865 E0.0396
G0 X4.655 Y5.179 F4200
G1 X4.688 Y5.147 E0.0022 F2400
G1 X6.134 Y4.319 E0.0796
G1 X6.172 Y4.341 E0.0021
G1 X5.844 Y4.669 E0.0221
G1 X6.096 Y4.561 E0.0131
G1 X6.479 Y4.714 E0.0197
G1 X6.601 Y4.591 E0.0083
G1 X7.03 Y4.841 E0.0237
G1 X6.964 Y4.908 E0.0045
G1 X7.449 Y5.101 E0.0249
G1 X7.459 Y5.091 E0.0007
G1 X7.888 Y5.341 E0.0237
G1 X7.698 Y5.531 E0.0129
G1 X7.901 Y6.006 E0.0247
G1 X8.105 Y5.803 E0.0137
G1 X8.102 Y6.475 E0.0321
G1 X7.901 Y6.006 E0.0243
G0 X7.01 Y8.255 F4200
G1 X7.577 Y8.012 E0.0295 F2400
G1 X7.792 Y7.473 E0.0277
G1 X8.1 Y7.165 E0.0208
G1 X8.098 Y7.75 E0.0279
G1 X6.737 Y8.529 E0.0749
G1 X7.01 Y8.255 E0.0185
G1 X6.128 Y8.634 E0.0459
G1 X6.003 Y8.584 E0.0064
G1 X5.855 Y8.731 E0.0099
G1 X5.426 Y8.481 E0.0237
G1 X5.518 Y8.39 E0.0062
G1 X5.032 Y8.196 E0.0249
G1 X4.997 Y8.231 E0.0024
G0 X4.568 Y7.982 F4200
G1 X4.694 Y8.055 E0.0069 F2400
G1 X4.634 Y7.916 E0.0072
G1 X4.568 Y7.982 E0.0045
G1 X4.145 Y7.735 E0.0234
G1 X4.145 Y7.726 E0.0004
G1 X4.431 Y7.441 E0.0193
G1 X4.227 Y6.966 E0.0247
G1 X4.147 Y7.045 E0.0054
G0 X4.192 Y6.322 F4200
G1 X4.15 Y6.427 E0.0054 F2400
G1 X4.15 Y6.385 E0.002
G1 X4.15 Y6.364 E0.001
G1 X4.192 Y6.322 E0.0028
G1 X4.644 Y5.191 E0.0581
G1 X4.153 Y5.682 E0.0332
G1 E-1 F1200
G0 X-3.722 Y5.225 F4200
G1 E1 F1200
G1 X-3.732 Y7.995 E0.1323 F1800
G1 X-6.136 Y9.371 E0.1323
G1 X-8.53 Y7.977 E0.1323
G1 X-8.519 Y5.207 E0.1323
G1 X-6.115 Y3.831 E0.1323
G1 X-3.722 Y5.225 E0.1323
G0 X-4.56 Y6.588 F4200
G1 X-5.044 Y5.46 E0.0586 F1800
G1 X-6.149 Y5.018 E0.0568
G1 X-7.277 Y5.502 E0.0586
G1 X-7.718 Y6.607 E0.0568
G1 X-7.234 Y7.735 E0.0586
G1 X-6.129 Y8.177 E0.0568
G1 X-5.001 Y7.693 E0.0586
G1 X-4.56 Y6.588 E0.0568
G0 X-3.241 Y4.95 F4200
G1 X-3.253 Y8.274 E0.1587 F1200
G1 X-6.138 Y9.925 E0.1587
G1 X-9.011 Y8.252 E0.1587
G1 X-8.998 Y4.928 E0.1587
G1 X-6.113 Y3.277 E0.1587
G1 X-3.241 Y4.95 E0.1587
G0 X-5.079 Y6.594 F4200
G1 X-5.407 Y5.832 E0.0396 F1200
G1 X-6.142 Y5.538 E0.0378
G1 X-6.905 Y5.865 E0.0396
G1 X-7.199 Y6.601 E0.0378
G1 X-6.872 Y7.363 E0.0396
G1 X-6.136 Y7.657 E0.0378
G1 X-5.373 Y7.33 E0.0396
G1 X-5.079 Y6.594 E0.0378
G0 X-4.226 Y6.891 F4200
G1 X-4.15 Y6.815 E0.0051 F2400
G1 X-4.153 Y7.496 E0.0325
G0 X-4.744 Y8.088 F4200
G1 X-4.153 Y7.75 E0.0325 F2400
G1 X-4.153 Y7.496 E0.0121
G1 X-4.744 Y8.088 E0.04
G1 X-6.134 Y8.883 E0.0765
G1 X-6.188 Y8.852 E0.0029
G1 X-5.853 Y8.518 E0.0226
G1 X-6.124 Y8.634 E0.0141
G1 X-6.498 Y8.484 E0.0193
G1 X-6.617 Y8.602 E0.008
G1 X-7.046 Y8.353 E0.0237
G1 X-6.983 Y8.29 E0.0042
G1 X-7.468 Y8.097 E0.0249
G1 X-7.474 Y8.103 E0.0004
G0 X-7.722 Y7.671 F4200
G1 X-7.557 Y8.055 E0.0199 F2400
G1 X-7.903 Y7.853 E0.0191
G1 X-7.722 Y7.671 E0.0123
G1 X-7.925 Y7.196 E0.0247
G1 X-8.105 Y7.376 E0.0121
G0 X-8.1 Y6.013 F4200
G1 X-7.827 Y5.74 E0.0184 F2400
G1 X-8.101 Y6.427 E0.0354
G1 X-8.101 Y6.385 E0.002
G1 X-8.101 Y6.385 E0
G1 X-8.1 Y6.013 E0.0178
G1 X-8.098 Y5.453 E0.0267
G1 X-6.793 Y4.706 E0.0718
G1 X-7.019 Y4.932 E0.0152
G1 X-6.155 Y4.561 E0.0449
G1 X-6.022 Y4.614 E0.0068
G1 X-5.871 Y4.463 E0.0102
G1 X-5.442 Y4.712 E0.0237
G1 X-5.537 Y4.808 E0.0064
G1 X-5.052 Y5.002 E0.0249
G1 X-5.013 Y4.962 E0.0027
G1 X-4.584 Y5.212 E0.0237
G1 X-4.658 Y5.287 E0.005
G1 X-4.455 Y5.762 E0.0247
G1 X-4.155 Y5.462 E0.0202
G1 X-4.145 Y5.468 E0.0005
G1 X-4.147 Y6.133 E0.0318
G1 X-4.251 Y6.237 E0.007
G1 X-4.149 Y6.475 E0.0124
G1 X-4.147 Y6.133 E0.0163
G1 E-1 F1200
G0 X-6.136 Y-3.831 F4200
G1 E1 F1200
G1 X-8.53 Y-5.225 E0.1323 F1800
G1 X-8.519 Y-7.995 E0.1323
G1 X-6.115 Y-9.371 E0.1323
G1 X-3.722 Y-7.977 E0.1323
G1 X-3.732 Y-5.207 E0.1323
G1 X-6.136 Y-3.831 E0.1323
G0 X-6.129 Y-5.026 F4200
G1 X-5.001 Y-5.51 E0.0586 F1800
G1 X-4.56 Y-6.615 E0.0568
G1 X-5.044 Y-7.743 E0.0586
G1 X-6.149 Y-8.184 E0.0568
G1 X-7.277 Y-7.7 E0.0586
G1 X-7.718 Y-6.595 E0.0568
G1 X-7.234 Y-5.467 E0.0586
G1 X-6.129 Y-5.026 E0.0568
G0 X-6.138 Y-3.277 F4200
G1 X-9.011 Y-4.95 E0.1587 F1200
G1 X-8.998 Y-8.274 E0.1587
G1 X-6.113 Y-9.925 E0.1587
G1 X-3.241 Y-8.252 E0.1587
G1 X-3.253 Y-4.928 E0.1587
G1 X-6.138 Y-3.277 E0.1587
G0 X-6.136 Y-5.545 F4200
G1 X-5.373 Y-5.872 E0.0396 F1200
G1 X-5.079 Y-6.608 E0.0378
G1 X-5.407 Y-7.371 E0.0396
G1 X-6.142 Y-7.665 E0.0378
G1 X-6.905 Y-7.338 E0.0396
G1 X-7.199 Y-6.602 E0.0378
G1 X-6.872 Y-5.839 E0.0396
G1 X-6.136 Y-5.545 E0.0378
G0 X-4.859 Y-5.049 F4200
G1 X-4.153 Y-5.453 E0.0388 F2400
G1 X-4.152 Y-5.756 E0.0145
G1 X-4.645 Y-5.263 E0.0333
G1 X-4.674 Y-5.191 E0.0037
G1 X-4.75 Y-5.158 E0.0039
G1 X-4.859 Y-5.049 E0.0074
G1 X-6.134 Y-4.319 E0.0702
G1 X-6.219 Y-4.368 E0.0047
G1 X-5.939 Y-4.648 E0.0189
G1 X-6.124 Y-4.569 E0.0096
G1 X-6.533 Y-4.732 E0.0211
G1 X-6.648 Y-4.618 E0.0077
G1 X-7.076 Y-4.868 E0.0237
G1 X-7.018 Y-4.926 E0.0039
G1 X-7.503 Y-5.12 E0.0249
G1 X-7.505 Y-5.118 E0.0001
G0 X-7.736 Y-5.566 F4200
G1 X-7.557 Y-5.148 E0.0217 F2400
G1 X-7.934 Y-5.368 E0.0209
