; G-Code generated by Simplify3D(TM) Version 2.1.0
; Jan 6, 2016 at 4:24:16 PM
; Settings Summary
;   processName,ANY-025-25infill
;   applyToModels,teensy-revision
;   printMaterial,
;   printQuality,
;   extruderName,Right Extruder,Left Extruder
;   extruderToolheadNumber,0,1
;   extruderDiameter,0.4,0.4
;   extruderAutoWidth,1,1
;   extruderWidth,0.48,0.48
;   extrusionMultiplier,1,1
;   extruderUseRetract,1,1
;   extruderRetractionDistance,1,1
;   extruderExtraRestartDistance,0,0
;   extruderRetractionZLift,0,0
;   extruderRetractionSpeed,1200,1200
;   extruderUseCoasting,0,0
;   extruderCoastingDistance,0.2,0.2
;   extruderUseWipe,0,0
;   extruderWipeDistance,5,5
;   primaryExtruder,0
;   layerHeight,0.25
;   topSolidLayers,3
;   bottomSolidLayers,3
;   perimeterOutlines,2
;   printPerimetersInsideOut,1
;   startPointOption,2
;   startPointOriginX,0
;   startPointOriginY,0
;   startPointOriginZ,300
;   sequentialIslands,0
;   spiralVaseMode,0
;   firstLayerHeightRatio,0.75
;   firstLayerUnderspeed,0.75
;   useRaft,0
;   raftLayers,2
;   raftOffset,2
;   raftInfill,10
;   disableRaftBaseLayers,0
;   useSkirt,1
;   skirtLayers,4
;   skirtOutlines,6
;   skirtOffset,0.8
;   infillExtruder,0
;   externalInfillPattern,Rectilinear
;   infillPercentage,15
;   outlineOverlapPercentage,12
;   minInfillLength,5
;   infillLayerInterval,1
;   randomInfillStartPoint,1
;   infillAngles,45,135
;   generateSupport,0
;   supportExtruder,0
;   supportInfill,15
;   supportExtraInflation,0
;   supportLayerInterval,1
;   supportHorizontalPartOffset,0.65
;   supportUpperSeparationLayers,1
;   supportLowerSeparationLayers,1
;   supportGridSpacing,2
;   maxOverhangAngle,45
;   supportAngles,0
;   temperatureName,Right Extruder,Left Extruder,Heated Build Platform
;   temperatureNumber,0,1,0
;   temperatureSetpointCount,1,1,1
;   temperatureSetpointLayers,1,1,1
;   temperatureSetpointTemperatures,240,0,60
;   temperatureStabilizeAtStartup,0,0,0
;   temperatureHeatedBed,0,0,1
;   temperatureRelayBetweenLayers,0,0,0
;   temperatureRelayBetweenLoops,0,0,0
;   fanLayers,1,2
;   fanSpeeds,0,100
;   blipFanToFullPower,0
;   adjustSpeedForCooling,1
;   minSpeedLayerTime,15
;   minCoolingSpeedSlowdown,20
;   increaseFanForCooling,0
;   minFanLayerTime,45
;   maxCoolingFanSpeed,100
;   increaseFanForBridging,1
;   bridgingFanSpeed,100
;   use5D,1
;   relativeEdistances,1
;   allowEaxisZeroing,0
;   includeM10123,0
;   stickySupport,1
;   detectArcs,0
;   arcReplaceG2G3,0
;   arcRadialCompensation,1
;   gcodeXoffset,0
;   gcodeYoffset,0
;   gcodeZoffset,0
;   overrideMachineDefinition,1
;   machineTypeOverride,0
;   strokeXoverride,220
;   strokeYoverride,140
;   strokeZoverride,150
;   originOffsetXoverride,110
;   originOffsetYoverride,70
;   originOffsetZoverride,0
;   homeXdirOverride,1
;   homeYdirOverride,1
;   homeZdirOverride,-1
;   flipXoverride,1
;   flipYoverride,-1
;   flipZoverride,1
;   startingGcode,; **** Replicator 1 dual start.gcode ****,M73 P0 ; enable build progress,G162 X Y F3000 ; home XY maximum,G161 Z F1200 ; home Z minimum,G92 Z-5 ; set Z to -5,G1 Z0 ; move Z to 0,G161 Z F100 ; home Z slowly,M132 X Y Z A B ; recall home offsets,M135 T0 ; load right extruder offsets,G1 X105 Y-70 Z30 F9000 ; move to wait position off table,G130 X20 Y20 Z20 A20 B20 ; lower stepper Vrefs while heating,M126 S[fan_speed_pwm],M140 S[bed0_temperature] T0,M104 S[extruder0_temperature] T0,M104 S[extruder1_temperature] T1,M134 T0 ; stabilize bed temperature,M133 T0 ; stabilize right extruder temperature,G130 X127 Y127 Z40 A127 B127 ; default stepper Vrefs,G92 A0 B0 ; zero extruders,G1 Z0.4 ; position nozzle,G1 E25 F300 ; purge nozzle,G1 X100 Y-65 Z0.15 F1200 ; slow wipe,G1 X95 Y-60 Z0.5 F1200 ; lift,G92 A0 B0 ; zero extruders,M73 P1 ;@body (notify GPX body has started),; **** end of start.gcode ****
;   layerChangeGcode,
;   toolChangeGcode,
;   endingGcode,; **** Replicator 1 dual end.gcode ****,M73 P100 ; end build progress,G0 Z150 F1000 ; send Z axis to bottom of machine,M140 S0 T0 ; cool down HBP,M104 S0 T0 ; cool down right extruder,M104 S0 T1 ; cool down left extruder,M127 ; stop blower fan,G162 X Y F3000 ; home XY maximum,M18 ; disable stepper,M72 P1 ; play Ta-Da song,; **** end of end.gcode ****
;   createX3G,0
;   celebration,0
;   celebrationSong,Random Song
;   postProcessing,
;   defaultSpeed,3200
;   outlineUnderspeed,0.5
;   supportUnderspeed,0.8
;   rapidXYspeed,4200
;   rapidZspeed,1200
;   minBridgingArea,50
;   bridgingExtrusionMultiplier,1
;   bridgingSpeedMultiplier,0.8
;   filamentDiameter,1.6
;   useMinPrintHeight,0
;   minPrintHeight,9.85
;   useMaxPrintHeight,0
;   maxPrintHeight,10
;   overlapRemoval,0
;   overlapRemovalPercentage,0.3
;   useDiaphragm,0
;   diaphragmLayerInterval,20
;   robustSlicing,1
;   mergeAllIntoSolid,0
;   onlyRetractWhenCrossingOutline,1
;   retractBetweenLayers,1
;   useRetractionMinTravel,0
;   retractionMinTravel,3
;   useRetractionOozeRate,0
;   retractionOozeRate,100
;   onlyWipeOutlines,1
G90 ; use absolute coordinates
M83 ; relative extrusion distances
G21 ; set units to millimeters
; **** Replicator 1 dual start.gcode ****
M73 P0 ; enable build progress
G162 X Y F3000 ; home XY maximum
G161 Z F1200 ; home Z minimum
G92 Z-5 ; set Z to -5
G1 Z0 ; move Z to 0
G161 Z F100 ; home Z slowly
M132 X Y Z A B ; recall home offsets
M135 T0 ; load right extruder offsets
G1 X105 Y-70 Z30 F9000 ; move to wait position off table
G130 X20 Y20 Z20 A20 B20 ; lower stepper Vrefs while heating
M127
M140 S60 T0
M104 S240 T0
M104 S0 T1
M134 T0 ; stabilize bed temperature
M133 T0 ; stabilize right extruder temperature
G130 X127 Y127 Z40 A127 B127 ; default stepper Vrefs
G92 A0 B0 ; zero extruders
G1 Z0.4 ; position nozzle
G1 E25 F300 ; purge nozzle
G1 X100 Y-65 Z0.15 F1200 ; slow wipe
G1 X95 Y-60 Z0.5 F1200 ; lift
G92 A0 B0 ; zero extruders
M73 P1 ;@body (notify GPX body has started)
; **** end of start.gcode ****
G1 E-1 F1200
; layer 1, Z = 0.1875
M135 T0
; tool H0.25 W0.48
G0 X10.555 Y-1.236 F4200
G0 Z0.188 F1200
G1 E1 F360
G1 X10.729 Y-2.337 E0.0665 F2400
G1 X11.8 Y-3.916 E0.1139
G1 X12.371 Y-4.163 E0.0371
G1 X13.073 Y-6.654 E0.1544
G1 X14.168 Y-9.623 E0.1889
G1 X14.782 Y-10.676 E0.0727
G1 X16.622 Y-13.547 E0.2035
G1 X16.975 Y-13.886 E0.0292
G1 X17.172 Y-14.173 E0.0208
G1 X17.899 Y-14.854 E0.0594
G1 X18.501 Y-15.248 E0.0429
G1 X19.081 Y-15.528 E0.0385
G1 X19.693 Y-15.73 E0.0385
G1 X20.324 Y-15.851 E0.0384
G1 X20.996 Y-15.89 E0.0402
G1 X21.776 Y-15.819 E0.0467
G1 X22.445 Y-15.653 E0.0412
G1 X23.081 Y-15.402 E0.0408
G1 X23.753 Y-15.011 E0.0464
G1 X24.287 Y-14.58 E0.041
G1 X24.757 Y-14.087 E0.0406
G1 X25.202 Y-13.449 E0.0464
G1 X25.504 Y-12.838 E0.0407
G1 X25.714 Y-12.221 E0.0389
G1 X25.84 Y-11.586 E0.0386
G1 X25.875 Y-11.054 E0.0318
G1 X25.875 Y17.69 E1.7156
G1 X-25.875 Y17.69 E3.0886
G1 X-25.874 Y-13.002 E1.8318
G1 X-25.8 Y-13.678 E0.0406
G1 X-25.533 Y-14.6 E0.0573
G1 X-25.104 Y-15.431 E0.0558
G1 X-24.507 Y-16.181 E0.0572
G1 X-23.939 Y-16.685 E0.0453
G1 X-23.254 Y-17.127 E0.0487
G1 X-22.431 Y-17.476 E0.0534
G1 X-21.45 Y-17.68 E0.0598
G1 X-20.546 Y-17.688 E0.054
G1 X-19.663 Y-17.541 E0.0534
G1 X-18.726 Y-17.188 E0.0598
G1 X-17.961 Y-16.712 E0.0538
G1 X-17.294 Y-16.113 E0.0535
G1 X-16.72 Y-15.35 E0.057
G1 X-16.455 Y-14.832 E0.0348
G1 X-15.174 Y-11.989 E0.1861
G1 X-13.027 Y-6.491 E0.3522
G1 X-12.383 Y-4.206 E0.1417
G1 X-11.98 Y-4.065 E0.0255
G1 X-10.876 Y-2.621 E0.1085
G1 X-10.557 Y-1.461 E0.0718
G1 X-10.549 Y5.809 E0.4339
G1 X10.549 Y5.809 E1.2592
G1 X10.555 Y-1.236 E0.4205
G0 X11.035 Y-1.198 F4200
G1 X11.187 Y-2.156 E0.0579 F2400
G1 X12.119 Y-3.531 E0.0991
G1 X12.771 Y-3.813 E0.0424
G1 X13.53 Y-6.505 E0.1669
G1 X14.604 Y-9.417 E0.1852
G1 X15.192 Y-10.425 E0.0696
G1 X16.996 Y-13.24 E0.1996
G1 X17.342 Y-13.573 E0.0287
G1 X17.539 Y-13.858 E0.0207
G1 X18.197 Y-14.475 E0.0538
G1 X18.737 Y-14.829 E0.0386
G1 X19.261 Y-15.082 E0.0347
G1 X19.813 Y-15.264 E0.0347
G1 X20.383 Y-15.373 E0.0346
G1 X20.988 Y-15.409 E0.0362
G1 X21.695 Y-15.345 E0.0424
G1 X22.299 Y-15.194 E0.0371
G1 X22.871 Y-14.969 E0.0367
G1 X23.48 Y-14.614 E0.0421
G1 X23.962 Y-14.226 E0.0369
G1 X24.384 Y-13.782 E0.0366
G1 X24.788 Y-13.204 E0.0421
G1 X25.06 Y-12.654 E0.0366
G1 X25.25 Y-12.096 E0.0352
G1 X25.363 Y-11.523 E0.0349
G1 X25.395 Y-11.039 E0.029
G1 X25.395 Y17.21 E1.686
G1 X-25.395 Y17.21 E3.0313
G1 X-25.394 Y-12.976 E1.8016
G1 X-25.327 Y-13.585 E0.0366
G1 X-25.085 Y-14.422 E0.052
G1 X-24.699 Y-15.169 E0.0502
G1 X-24.157 Y-15.85 E0.0519
G1 X-23.648 Y-16.301 E0.0406
G1 X-23.028 Y-16.701 E0.044
G1 X-22.287 Y-17.015 E0.0481
G1 X-21.399 Y-17.201 E0.0541
G1 X-20.584 Y-17.208 E0.0486
G1 X-19.788 Y-17.075 E0.0481
G1 X-18.94 Y-16.755 E0.0541
G1 X-18.251 Y-16.326 E0.0484
G1 X-17.65 Y-15.787 E0.0482
G1 X-17.128 Y-15.095 E0.0517
G1 X-16.888 Y-14.624 E0.0316
G1 X-15.617 Y-11.803 E0.1847
G1 X-13.483 Y-6.338 E0.3501
G1 X-12.777 Y-3.836 E0.1552
G1 X-12.274 Y-3.659 E0.0318
G1 X-11.314 Y-2.403 E0.0943
G1 X-11.037 Y-1.396 E0.0623
G1 X-11.029 Y6.289 E0.4587
G1 X11.028 Y6.289 E1.3164
G1 X11.035 Y-1.198 E0.4469
G0 X11.515 Y-1.16 F4200
G1 X11.644 Y-1.976 E0.0493 F2400
G1 X12.438 Y-3.146 E0.0844
G1 X13.171 Y-3.463 E0.0477
G1 X13.987 Y-6.357 E0.1794
G1 X15.039 Y-9.212 E0.1816
G1 X15.601 Y-10.174 E0.0665
G1 X17.369 Y-12.933 E0.1956
G1 X17.71 Y-13.261 E0.0282
G1 X17.905 Y-13.544 E0.0205
G1 X18.494 Y-14.097 E0.0483
G1 X18.974 Y-14.411 E0.0342
G1 X19.441 Y-14.636 E0.031
G1 X19.934 Y-14.799 E0.031
G1 X20.443 Y-14.896 E0.0309
G1 X20.981 Y-14.928 E0.0322
G1 X21.615 Y-14.87 E0.038
G1 X22.152 Y-14.736 E0.033
G1 X22.661 Y-14.535 E0.0326
G1 X23.207 Y-14.218 E0.0377
G1 X23.636 Y-13.872 E0.0329
G1 X24.012 Y-13.477 E0.0325
G1 X24.374 Y-12.959 E0.0377
G1 X24.616 Y-12.47 E0.0326
G1 X24.785 Y-11.972 E0.0314
G1 X24.886 Y-11.46 E0.0311
G1 X24.915 Y-11.023 E0.0262
G1 X24.915 Y16.73 E1.6564
G1 X-24.915 Y16.73 E2.974
G1 X-24.914 Y-12.95 E1.7714
G1 X-24.855 Y-13.492 E0.0325
G1 X-24.637 Y-14.243 E0.0467
G1 X-24.294 Y-14.907 E0.0446
G1 X-23.808 Y-15.518 E0.0466
G1 X-23.357 Y-15.918 E0.0359
G1 X-22.803 Y-16.275 E0.0394
G1 X-22.142 Y-16.555 E0.0428
G1 X-21.347 Y-16.721 E0.0485
G1 X-20.621 Y-16.728 E0.0433
G1 X-19.914 Y-16.609 E0.0428
G1 X-19.153 Y-16.323 E0.0485
G1 X-18.54 Y-15.941 E0.0431
G1 X-18.005 Y-15.461 E0.0429
G1 X-17.537 Y-14.839 E0.0464
G1 X-17.32 Y-14.416 E0.0284
G1 X-16.06 Y-11.617 E0.1832
G1 X-13.938 Y-6.186 E0.348
G1 X-13.172 Y-3.466 E0.1687
G1 X-12.568 Y-3.254 E0.0382
G1 X-11.752 Y-2.186 E0.0802
G1 X-11.517 Y-1.331 E0.0529
G1 X-11.508 Y6.769 E0.4835
G1 X11.508 Y6.769 E1.3737
G1 X11.515 Y-1.16 E0.4733
G0 X11.995 Y-1.122 F4200
G1 X12.101 Y-1.795 E0.0406 F2400
G1 X12.757 Y-2.761 E0.0697
G1 X13.571 Y-3.114 E0.0529
G1 X14.444 Y-6.208 E0.1919
G1 X15.475 Y-9.006 E0.178
G1 X16.011 Y-9.924 E0.0634
G1 X17.743 Y-12.627 E0.1916
G1 X18.078 Y-12.949 E0.0277
G1 X18.271 Y-13.229 E0.0203
G1 X18.792 Y-13.718 E0.0427
G1 X19.211 Y-13.992 E0.0298
G1 X19.622 Y-14.19 E0.0272
G1 X20.055 Y-14.333 E0.0272
G1 X20.502 Y-14.419 E0.0272
G1 X20.973 Y-14.447 E0.0281
G1 X21.535 Y-14.395 E0.0337
G1 X22.005 Y-14.278 E0.0289
G1 X22.451 Y-14.102 E0.0286
G1 X22.934 Y-13.821 E0.0334
G1 X23.31 Y-13.518 E0.0288
G1 X23.639 Y-13.173 E0.0285
G1 X23.96 Y-12.714 E0.0334
G1 X24.171 Y-12.285 E0.0285
G1 X24.32 Y-11.847 E0.0276
G1 X24.409 Y-11.398 E0.0273
G1 X24.435 Y-11.007 E0.0234
G1 X24.435 Y16.25 E1.6268
G1 X-24.435 Y16.25 E2.9167
G1 X-24.434 Y-12.923 E1.7412
G1 X-24.382 Y-13.398 E0.0285
G1 X-24.189 Y-14.065 E0.0414
G1 X-23.889 Y-14.645 E0.039
G1 X-23.458 Y-15.187 E0.0413
G1 X-23.066 Y-15.534 E0.0313
G1 X-22.578 Y-15.849 E0.0347
G1 X-21.998 Y-16.095 E0.0375
G1 X-21.295 Y-16.241 E0.0429
G1 X-20.659 Y-16.247 E0.038
G1 X-20.039 Y-16.144 E0.0375
G1 X-19.367 Y-15.89 E0.0429
G1 X-18.829 Y-15.556 E0.0378
G1 X-18.36 Y-15.135 E0.0376
G1 X-17.945 Y-14.584 E0.0412
G1 X-17.753 Y-14.208 E0.0252
G1 X-16.502 Y-11.431 E0.1818
G1 X-14.394 Y-6.033 E0.3459
G1 X-13.566 Y-3.096 E0.1821
G1 X-12.862 Y-2.848 E0.0445
G1 X-12.19 Y-1.969 E0.0661
G1 X-11.997 Y-1.266 E0.0435
G1 X-11.988 Y7.249 E0.5082
G1 X11.987 Y7.249 E1.4309
G1 X11.995 Y-1.122 E0.4997
G0 X12.475 Y-1.084 F4200
G1 X12.559 Y-1.614 E0.032 F2400
G1 X13.076 Y-2.376 E0.055
G1 X13.898 Y-2.732 E0.0535
G1 X13.962 Y-2.732 E0.0038
G1 X14.9 Y-6.06 E0.2064
G1 X15.911 Y-8.801 E0.1743
G1 X16.42 Y-9.673 E0.0603
G1 X18.116 Y-12.32 E0.1876
G1 X18.446 Y-12.636 E0.0273
G1 X18.637 Y-12.914 E0.0201
G1 X19.09 Y-13.339 E0.0371
G1 X19.447 Y-13.573 E0.0255
G1 X19.802 Y-13.744 E0.0235
G1 X20.176 Y-13.868 E0.0235
G1 X20.562 Y-13.941 E0.0235
G1 X20.965 Y-13.965 E0.0241
G1 X21.455 Y-13.921 E0.0293
G1 X21.858 Y-13.82 E0.0248
G1 X22.241 Y-13.669 E0.0245
G1 X22.661 Y-13.424 E0.029
G1 X22.984 Y-13.164 E0.0248
G1 X23.266 Y-12.868 E0.0244
G1 X23.545 Y-12.468 E0.0291
G1 X23.727 Y-12.101 E0.0245
G1 X23.856 Y-11.723 E0.0238
G1 X23.932 Y-11.335 E0.0236
G1 X23.955 Y-10.992 E0.0205
G1 X23.955 Y15.77 E1.5972
G1 X-23.955 Y15.77 E2.8594
G1 X-23.954 Y-12.897 E1.711
G1 X-23.909 Y-13.305 E0.0245
G1 X-23.741 Y-13.886 E0.0361
G1 X-23.484 Y-14.383 E0.0334
G1 X-23.109 Y-14.855 E0.036
G1 X-22.775 Y-15.151 E0.0266
G1 X-22.352 Y-15.424 E0.03
G1 X-21.854 Y-15.635 E0.0323
G1 X-21.244 Y-15.762 E0.0372
G1 X-20.697 Y-15.767 E0.0327
G1 X-20.165 Y-15.678 E0.0322
G1 X-19.58 Y-15.458 E0.0373
G1 X-19.118 Y-15.17 E0.0325
G1 X-18.715 Y-14.809 E0.0323
G1 X-18.354 Y-14.329 E0.0359
G1 X-18.186 Y-14 E0.022
G1 X-16.945 Y-11.245 E0.1804
G1 X-14.85 Y-5.88 E0.3437
G1 X-13.96 Y-2.725 E0.1956
G1 X-13.157 Y-2.443 E0.0508
G1 X-12.628 Y-1.752 E0.0519
G1 X-12.477 Y-1.201 E0.0341
G1 X-12.467 Y7.729 E0.533
G1 X12.467 Y7.729 E1.4882
G1 X12.475 Y-1.084 E0.526
G0 X12.955 Y-1.046 F4200
G1 X13.016 Y-1.433 E0.0234 F2400
G1 X13.395 Y-1.991 E0.0402
G1 X13.998 Y-2.252 E0.0392
G1 X16.872 Y-2.254 E0.1716
G1 X17.197 Y-2.198 E0.0197
G1 X17.355 Y-2.113 E0.0107
G1 X17.355 Y-2.928 E0.0486
G1 X14.526 Y-2.965 E0.1688
G1 X15.357 Y-5.912 E0.1827
G1 X16.347 Y-8.595 E0.1707
G1 X16.83 Y-9.423 E0.0572
G1 X18.49 Y-12.013 E0.1836
G1 X18.814 Y-12.324 E0.0268
G1 X19.003 Y-12.6 E0.02
G1 X19.388 Y-12.961 E0.0315
G1 X19.684 Y-13.154 E0.0211
G1 X19.982 Y-13.298 E0.0198
G1 X20.297 Y-13.402 E0.0198
G1 X20.621 Y-13.464 E0.0197
G1 X20.958 Y-13.484 E0.0201
G1 X21.374 Y-13.446 E0.025
G1 X21.712 Y-13.362 E0.0207
G1 X22.03 Y-13.236 E0.0205
G1 X22.388 Y-13.028 E0.0247
G1 X22.658 Y-12.81 E0.0207
G1 X22.893 Y-12.563 E0.0204
G1 X23.131 Y-12.223 E0.0248
G1 X23.283 Y-11.916 E0.0204
G1 X23.391 Y-11.598 E0.0201
G1 X23.456 Y-11.272 E0.0198
G1 X23.475 Y-10.976 E0.0177
G1 X23.475 Y15.29 E1.5676
G1 X-23.475 Y15.29 E2.8021
G1 X-23.474 Y-12.871 E1.6808
G1 X-23.437 Y-13.211 E0.0204
G1 X-23.293 Y-13.707 E0.0308
G1 X-23.08 Y-14.121 E0.0278
G1 X-22.759 Y-14.523 E0.0307
G1 X-22.484 Y-14.767 E0.0219
G1 X-22.127 Y-14.998 E0.0254
G1 X-21.71 Y-15.174 E0.027
G1 X-21.192 Y-15.282 E0.0316
G1 X-20.734 Y-15.287 E0.0273
G1 X-20.29 Y-15.212 E0.0269
G1 X-19.794 Y-15.025 E0.0317
G1 X-19.408 Y-14.785 E0.0271
G1 X-19.071 Y-14.483 E0.027
G1 X-18.762 Y-14.073 E0.0306
G1 X-18.619 Y-13.793 E0.0188
G1 X-17.388 Y-11.059 E0.1789
G1 X-15.305 Y-5.727 E0.3416
G1 X-14.49 Y-2.835 E0.1793
G1 X-17.355 Y-2.797 E0.171
G1 X-17.355 Y-2.109 E0.041
G1 X-17.018 Y-2.252 E0.0218
G1 X-14.068 Y-2.254 E0.1761
G1 X-13.451 Y-2.038 E0.039
G1 X-13.066 Y-1.535 E0.0378
G1 X-12.957 Y-1.136 E0.0246
G1 X-12.947 Y8.206 E0.5576
G1 X-12.932 Y8.209 E0.0009
G1 X12.946 Y8.209 E1.5445
G1 X12.947 Y8.209 E0
G1 X12.955 Y-1.046 E0.5524
G1 E-1 F1200
G0 X14.715 Y-0.439 F4200
G1 E1 F1200
G1 X16.303 Y-0.439 E0.0948 F1800
G1 X16.305 Y10.096 E0.6288
G1 X16.359 Y10.567 E0.0283
G1 X16.453 Y10.886 E0.0198
G1 X16.587 Y11.19 E0.0198
G1 X16.872 Y11.615 E0.0306
G1 X17.254 Y11.98 E0.0315
G1 X17.692 Y12.246 E0.0306
G1 X18.002 Y12.366 E0.0198
G1 X18.324 Y12.446 E0.0198
G1 X18.82 Y12.48 E0.0296
G1 X19.15 Y12.444 E0.0198
G1 X19.473 Y12.367 E0.0198
G1 X19.936 Y12.166 E0.0301
G1 X20.283 Y11.925 E0.0252
G1 X20.519 Y11.702 E0.0194
G1 X20.719 Y11.457 E0.0189
G1 X20.885 Y11.187 E0.0189
G1 X21.015 Y10.898 E0.0189
G1 X21.106 Y10.595 E0.0189
G1 X21.158 Y10.274 E0.0194
G1 X21.163 Y9.852 E0.0252
